X:1
T:Title
%%score { ( 1 3 ) | ( 2 4 ) }
L:1/8
M:4/4
K:Ab
V:1 treble nm="Grand Piano"
V:3 treble 
V:2 bass 
V:4 bass 
V:1
 z4 z2[Q:1/4=100] [A,C][B,D] | [CE][CE][EA]B cc[EA][EA] | BAFA [CE]2 [A,C][B,D] | %3
 [CE][CE][EA]B ccdc | B6 cd | eecB AA[EA][CE] |[M:9/8] FFF F [Fd]2- [Fd][Fc][FB] | %7
[M:4/4] AEAc cBEB |[M:3/4] [CA]6 |[M:1/4] [EA][EG] |[M:4/4] z F3- F2 z2 | z E3- E2 z2 | %12
 cccc [=Dc][DB][DF][DB] | B6 z2 | eecB A2 [EA][CE] |[M:9/8] FFF F [Fd]2- [Fd][Fc][FB] | %16
[M:4/4] AEAc cBEB |[M:3/4] A6 |] %18
V:2
 z4 z2 [A,,E,][A,,E,] | [A,,A,][A,,A,][C,A,][E,G,E] [A,E][A,E][C,A,][C,A,] | %2
 [D,F,D][D,F,D][D,A,D][D,F,D] [A,,A,]2 [A,,E,][A,,E,] | %3
 [A,,A,][A,,A,][C,A,][E,G,E] [A,E][A,E][G,B,E][A,E] | [E,G,E]6 [A,E][A,B,E] | %5
 [A,CE][A,CE][A,E][E,G,D] [F,A,C][F,A,C][C,A,][A,,A,] | %6
[M:9/8] [D,A,D][D,A,D][D,A,D] [D,A,D] [B,,B,]2- [B,,B,][C,=A,][D,B,] | %7
[M:4/4] [E,CE][E,A,C][E,CE][E,A,E] [E,G,E][E,G,D][E,G,][E,G,D] |[M:3/4] [A,,A,]6 | %9
[M:1/4] [C,A,][C,A,] |[M:4/4] [D,A,][D,A,D][D,A,][D,A,] [D,A,][D,A,][D,F,D][D,A,D] | %11
 [A,,A,][A,,A,][C,A,][E,A,] A,A,C,[E,G,E] | [A,E][A,E][A,E][A,E] [B,,A,][B,,A,][B,,A,][B,,A,] | %13
 [E,G,E]2 [F,A,]2 [G,B,]2 [A,E][A,B,E] | [A,CE][A,CE][A,E][E,G,D] [F,A,C]2 [C,A,][A,,A,] | %15
[M:9/8] [D,A,D][D,A,D][D,A,D] [D,A,D] [B,,B,]2- [B,,B,][C,=A,][D,B,] | %16
[M:4/4] [E,CE][E,A,C][E,CE][E,A,E] [E,G,E][E,G,D][E,G,D][E,G,D] |[M:3/4] z2 F,F, E,2 |] %18
V:3
 x8 | x8 | x8 | x8 | x8 | x8 |[M:9/8] x9 |[M:4/4] x8 |[M:3/4] x6 |[M:1/4] x2 | %10
[M:4/4] .[EG]2 DD DDAF | [DF]CCC CC[A,EA]B | x8 | z2 =D2 ._D2 cd | x8 |[M:9/8] x9 |[M:4/4] x8 | %17
[M:3/4] [A,C]2 DD C2 |] %18
V:4
 x8 | x8 | x8 | x8 | x8 | x8 |[M:9/8] x9 |[M:4/4] x8 |[M:3/4] x6 |[M:1/4] x2 |[M:4/4] x8 | x8 | %12
 x8 | x8 | x8 |[M:9/8] x9 |[M:4/4] x8 |[M:3/4] A,,6 |] %18

